src/icons/icons_set_04/043-phone.svg

<svg height="50" viewBox="0 0 50 50" width="50" xmlns="http://www.w3.org/2000/svg"><g fill-rule="evenodd"><path d="m14.397803 35.5191683c-1.2283763-1.1120792-14.74619805-13.6930693-8.96763369-23.4229703.07509901-.1425742.17374257-.2760396.29633663-.3952475l4.95450496-4.83405941c1.141099-1.11405941 2.999901-1.11445545 4.1438416-.00118812l7.1518614 6.97861383c.5528911.539802.8577524 1.2574258.8577524 2.0205941s-.3048613 1.4807921-.8581584 2.0205941l-4.6472079 4.5350495c-.1404554.2285148-.5784653 1.2237623 1.100099 2.860198 2.8967921 2.8261386 3.2207327 3.1378218 3.2373762 3.1536633.0040595.0035644.2683268.2550495 3.2199208 3.1370297.0121783.0114852.0247624.0233664.0369406.0348515 1.8628614 1.8170297 2.9150594 1.0974258 2.9243961 1.0887129.0304455-.0253465.0617029-.0495049.0937723-.0720792l4.571297-4.4594059c.5516732-.539406 1.2880495-.8372278 2.0715148-.8372278.7822476 0 1.5186238.2970297 2.0719208.8368317l7.1514555 6.9766337c1.1419109 1.1136633 1.1427227 2.9271287.0012178 4.0423762l-5.2995545 5.169505c-.1420792.1386138-.3077029.2487128-.4879406.3271287-1.6850594.930693-3.443594 1.3211881-5.207 1.3211881-8.6822574.0011881-17.4952277-9.4641584-18.4167128-10.4807921z"/><g fill-rule="nonzero"><path d="m39.5 23c0 1.3807119-1.1192881 2.5-2.5 2.5s-2.5-1.1192881-2.5-2.5c0-4.1421356-3.3578644-7.5-7.5-7.5-1.3807119 0-2.5-1.1192881-2.5-2.5s1.1192881-2.5 2.5-2.5c6.9035594 0 12.5 5.5964406 12.5 12.5z"/><path d="m46.5 21c0 1.3807119-1.1192881 2.5-2.5 2.5s-2.5-1.1192881-2.5-2.5c0-6.9035594-5.5964406-12.5-12.5-12.5-1.3807119 0-2.5-1.11928813-2.5-2.5s1.1192881-2.5 2.5-2.5c9.6649831 0 17.5 7.8350169 17.5 17.5z"/></g></g></svg>

<?xml version="1.0" encoding="UTF-8"?>
<svg width="50px" height="50px" viewBox="0 0 50 50" version="1.1" xmlns="http://www.w3.org/2000/svg" xmlns:xlink="http://www.w3.org/1999/xlink">
    <!-- Generator: Sketch 52.4 (67378) - http://www.bohemiancoding.com/sketch -->
    <title>043-phone</title>
    <desc>Created with Sketch.</desc>
    <g id="043-phone" stroke="none" stroke-width="1" fill="none" fill-rule="evenodd">
        <path d="M14.397803,35.5191683 C13.1694267,34.4070891 -0.34839505,21.826099 5.43016931,12.096198 C5.50526832,11.9536238 5.60391188,11.8201584 5.72650594,11.7009505 L10.6810109,6.86689109 C11.8221099,5.75283168 13.6809119,5.75243564 14.8248525,6.86570297 L21.9767139,13.8443168 C22.529605,14.3841188 22.8344663,15.1017426 22.8344663,15.8649109 C22.8344663,16.6280792 22.529605,17.345703 21.9763079,17.885505 L17.3291,22.4205545 C17.1886446,22.6490693 16.7506347,23.6443168 18.429199,25.2807525 C21.3259911,28.1068911 21.6499317,28.4185743 21.6665752,28.4344158 C21.6706347,28.4379802 21.934902,28.6894653 24.886496,31.5714455 C24.8986743,31.5829307 24.9112584,31.5948119 24.9234366,31.606297 C26.786298,33.4233267 27.838496,32.7037228 27.8478327,32.6950099 C27.8782782,32.6696634 27.9095356,32.645505 27.941605,32.6229307 L32.512902,28.1635248 C33.0645752,27.6241188 33.8009515,27.326297 34.5844168,27.326297 C35.3666644,27.326297 36.1030406,27.6233267 36.6563376,28.1631287 L43.8077931,35.1397624 C44.949704,36.2534257 44.9505158,38.0668911 43.8090109,39.1821386 L38.5094564,44.3516436 C38.3673772,44.4902574 38.2017535,44.6003564 38.0215158,44.6787723 C36.3364564,45.6094653 34.5779218,45.9999604 32.8145158,45.9999604 C24.1322584,46.0011485 15.3192881,36.535802 14.397803,35.5191683 Z" id="Path" fill="#000000"></path>
        <path d="M39.5,23 C39.5,24.3807119 38.3807119,25.5 37,25.5 C35.6192881,25.5 34.5,24.3807119 34.5,23 C34.5,18.8578644 31.1421356,15.5 27,15.5 C25.6192881,15.5 24.5,14.3807119 24.5,13 C24.5,11.6192881 25.6192881,10.5 27,10.5 C33.9035594,10.5 39.5,16.0964406 39.5,23 Z" id="Shape" fill="#000000" fill-rule="nonzero"></path>
        <path d="M46.5,21 C46.5,22.3807119 45.3807119,23.5 44,23.5 C42.6192881,23.5 41.5,22.3807119 41.5,21 C41.5,14.0964406 35.9035594,8.5 29,8.5 C27.6192881,8.5 26.5,7.38071187 26.5,6 C26.5,4.61928813 27.6192881,3.5 29,3.5 C38.6649831,3.5 46.5,11.3350169 46.5,21 Z" id="Shape" fill="#000000" fill-rule="nonzero"></path>
    </g>
</svg>
